!!!!SEGMENT: pl-wnifc--13846--001-072_anonim--piesni-polskie-i-ruskie-ludu-galicyjskiego-72-zosiu-moja-zosiu-luba.krn
!!!kernsource:
!!!cenid: 18xx:3294
!!!COM: Anonim
!!!COM-rismID: pe30004985
!!!CDT:
!!!CNT:
!!!GTL: Pieśni polskie i ruskie ludu galicyjskiego
!!!OTL: 72. Zosiu moja, Zosiu luba
!!!OMV: 072
!!!PDT: 1833
!!!AGN:
!!!SMS-siglum: PL-Wnifc
!!!SMS-shelfmark: 13846
!!!SMS-shelfwork: 001-072 G
!!!NIFC-rismSourceID: 1001036701
!!!NIFC-rismChildID: 1001037236
!!!NIFC-islandoraID: nifc:210326
!!!URL-pdf-islandora: https://repozytorium.nifc.pl/islandora/object/nifc%3A210326/datastream/PDF/view
!!!URL-scan:
!!!IIIF:
!!!ONB-nifc:
!!!AIN: 1 piano 1 vox
!!!key: G
!!!OMD: Krakowiak
**kern	**kern	**kern	**text
*part2	*part2	*part1	*part1
*staff3	*staff2	*staff1	*staff1
*I"FORTEPIAN.	*I"FORTEPIAN.	*I"GŁOS.	*
*Ipiano	*Ipiano	*Ivox	*
*ICklav	*ICklav	*ICvox	*
*IGacmp	*IGacmp	*IGsolo	*
*>[A,B,B]	*>[A,B,B]	*>[A,B,B]	*>[A,B,B]
*>A	*>A	*>A	*>A
*clefF4	*clefG2	*clefG2	*
*k[f#]	*k[f#]	*k[f#]	*
*G:	*G:	*G:	*
*M2/4	*M2/4	*M2/4	*
=1-	=1-	=1-	=1-
!	!	!LO:TX:a:t=E.11.	!
4GG/ 4GGG/	8b\L 8g\	8b\	Zo-
.	8b\ 8g\	8b\	-siu
4G/ 4GG/	8cc\ 8a\	8cc\	mo-
.	8dd\J 8b\	8dd\	-ja,
=2	=2	=2	=2
4GG/ 4GGG/	8ee\L 8cc\	8ee\	Zo-
.	8ee\ 8cc\	8ee\	-siu
4G/ 4GG/	8dd\ 8b\	8dd\	lu-
.	8cc#X/J 8a#X/	8cc#X\	-ba
!!LO:PB:g=original
=3	=3	=3	=3
*^	*	*	*
8c#X/L	4G\	8ee\L 8b-X\ 8g\	8ee\	jak-
8c#/	.	8ee\ 8b-\ 8g\	8ee\	-żeś
8d/	4G\	8dd\ 8bn\ 8g\	8dd\	o-
8e/J	.	8cc#X\J 8a#X\ 8g\	8cc#X\	-czóm
=4	=4	=4	=4	=4
4d/	4G\	4dd\ 4bn\ 4g\	4dd\	mi-
4d/	4G\	4b\ 4g\	4b\	-ła.
*v	*v	*	*	*
=5!|:	=5!|:	=5!|:	=5!|:
*>B	*>B	*>B	*>B
4DD/	8cc\L 8a\	8ccn\	pięk-
.	8a\J 8f#\	8a\	-nych
4d\ 4A\ 4F#\ 4D\	8a\L 8f#\	8a\	kwiat-
.	8cc\J 8a\	8cc\	-ków
!!LO:LB:g=original
=6	=6	=6	=6
*^	*	*	*
4GG/	4GG\	8b\L 8g\	8b\	je-
.	.	8dd\J 8b\	8dd\	-steś
*v	*v	*	*	*
4d\ 4B\ 4G\ 4D\	8dd\L 8b\	8dd\	zgu-
.	.	8qee/	.
.	(16ee\L	8dd\	-ba,
.	16dd\JJ)	.	.
=7	=7	=7	=7
4DD/	8cc\ 8a\	8cc\	i
.	(16cc\LL 16a\	(16cc\LL	ró-
.	16b\JJ 16g\)	16b\JJ)	.
4d\ 4A\ 4D\	8a/L 8f#/	8a/	-żeś
.	8dd/J	8dd\	za-
=8	=8	=8	=8
4GG/ 4GGG/	4b\	4b/	-ćmi-
!LO:TX:t=P:problem=brak znaku repetycji	!LO:TX:t=P:problem=brak znaku repetycji	!LO:TX:t=P:problem=brak znaku repetycji	!
4B\ 4G\ 4D\	4g/	4g/	-ła
==	==	==	==
*-	*-	*-	*-
!!!system-decoration: s1{(s2,s3)}
!!!ENC: Marta Lawrence
!!!END: 2021-11-10
!!!YEC: Copyright 2022 Narodowy Instytut Fryderyka Chopina (https://polishscores.org)
!!!YEM: License CC-BY-4.0 (https://creativecommons.org/licenses/by/4.0)
